icon-themes/breeze_svg/cmd/sc_insobjctrl.svg

<svg viewBox="0 0 16 16" xmlns="http://www.w3.org/2000/svg">/&gt;<path d="m3 2v12h4v-1h-3v-10h5v3h3v2h1v-3l-3-3zm7 7v2h-2v1h2v2h1v-2h2v-1h-2v-2z" fill="#4d4d4d"/></svg>

<svg xmlns="http://www.w3.org/2000/svg" viewBox="0 0 16 16">
     />
 <path 
     style="fill:#4d4d4d" 
     d="M 3 2 L 3 14 L 7 14 L 7 13 L 4 13 L 4 3 L 9 3 L 9 6 L 12 6 L 12 8 L 13 8 L 13 5 L 10 2 L 3 2 z M 10 9 L 10 11 L 8 11 L 8 12 L 10 12 L 10 14 L 11 14 L 11 12 L 13 12 L 13 11 L 11 11 L 11 9 L 10 9 z "
     />
 </svg>
